X:1
T:Viggo, 87.87.77
T:Viggo, 87.87.77
T:Viggo Kalhauge (1840-1905)
T:Public Domain Courtesy of the Cyber Hymnal™
C:Viggo Kalhauge (1840-1905)
Z:Public Domain
Z:Courtesy of the Cyber Hymnal™
%%score ( 1 2 ) ( 3 4 )
L:1/8
Q:1/4=107
M:4/4
K:G
V:1 treble 
V:2 treble 
V:3 bass 
V:4 bass 
V:1
 [DG]2 [DA]2 [DB]2 [DG]2 | [Dc]2 [DB]2 B2 A2 | [^DB]2 [FA]2 [FA]2 [EG]2 | G2 A2 [^DB]4 | %4
 [B,G]2 [DA]2 [DB]2 [=FG]2 | [Ec]2 [EB]2 B2 A2 | [DB]2 [EB]2 c2 A2 | G2 F2 [DG]4 | %8
 [B,G]2 [^CG]2 [DF]2 [B,F]2 | [G,E]2 [A,E]2 [B,D]4 | [DG]2 [B,A]2 A2 c2 | %11
 [DB]2 [CA]2 !fermata![B,G]4 |] %12
V:2
 x8 | x4 D4 | x8 | E4 x4 | x8 | x4 D4 | x4 E4 | D4 x4 | x8 | x8 | x4 E4 | x8 |] %12
V:3
 [G,B,]2 [D,F,]2 [G,,G,]2 [B,,G,]2 | [A,,F,]2 [G,,G,]2 G,2 F,2 | [B,,F,]2 [^D,B,]2 [E,B,]4 | %3
 [C,E,]4 [B,,F,]4 | [E,G,]2 [D,F,]2 [G,,G,]2 [B,,D]2 | [C,G,]2 [^C,G,]2 G,2 F,2 | G,2 [E,G,]2 A,4 | %7
 A,2 C2 [G,,B,]4 | [E,G,]2 [E,G,]2 B,2 D,2 | E,2 F,2 [G,,G,]4 | [B,,G,]2 [E,G,]2 G,4 | %11
 [D,F,]4 !fermata![G,,D,G,]4 |] %12
V:4
 x8 | x4 D,4 | x8 | x8 | x8 | x4 D,4 | G,2 A,,2 C,2 x2 | D,4 x4 | x4 B,,4 | C,4 x4 | x4 C,2 A,,2 | %11
 x8 |] %12

